X:21
T:The Longford Collector
R:reel
O:
M:C
L:1/8
K:G
"G" ~G3 A Bdef | "Em" eB ~B2     eBdB  | "G" ~G3   A    BcdB | "Am" AcBA        GEDE |
"G" ~G3 A Bdef | "Em" eB  BA "D" B2 ef | "G" gbaf (3(gfe) dB | "Am" AcBA "Em/C" GEDE :|
"G" ~g3 a gedf | "Em" eB ~B2 "D" d2 ef | "G" (3(gag) fa gedB | "Am" AcBA      GE ~E2 |
"G" ~g3 a gedf | "Em" eB ~B2 "D" d2 ef | "G" gb (3(agf) gedB | "Am" AcBA "Em/C" GEDE :|
